icons/eye-open-outlined-12px.svg

<svg width="12" height="12" viewBox="0 0 12 12" fill="none" xmlns="http://www.w3.org/2000/svg"><path d="M5.99902 2.07227C8.03362 2.07227 9.36433 3.03806 10.1719 3.99414C10.5724 4.46842 10.8459 4.94084 11.0195 5.29492C11.1066 5.47256 11.1693 5.62253 11.2109 5.72949C11.2317 5.78276 11.2471 5.82567 11.2578 5.85645C11.2632 5.87185 11.2675 5.88443 11.2705 5.89355C11.2719 5.89792 11.2735 5.90145 11.2744 5.9043C11.2748 5.90562 11.2751 5.90723 11.2754 5.9082L11.2764 5.91016C11.2764 5.91041 11.276 5.91112 10.7988 6.06055L11.2734 6.21875L11.2725 6.2207L11.2676 6.23535C11.2644 6.24431 11.2604 6.25649 11.2549 6.27148C11.2437 6.30178 11.2275 6.344 11.2061 6.39648C11.1631 6.50161 11.0979 6.64901 11.0088 6.82324C10.831 7.17059 10.5525 7.63325 10.1484 8.0957C9.33386 9.02795 8.00258 9.96155 5.99121 9.92871C3.99061 9.89599 2.66577 8.96893 1.85254 8.05469C1.44878 7.60074 1.17034 7.14955 0.992188 6.81152C0.902952 6.64219 0.838091 6.49959 0.794922 6.39746C0.77335 6.34642 0.757344 6.30493 0.746094 6.27539C0.740518 6.26075 0.735598 6.24901 0.732422 6.24023C0.730893 6.23601 0.729497 6.23227 0.728516 6.22949C0.728049 6.22817 0.727878 6.22656 0.727539 6.22559L0.726562 6.22363L1.19922 6.06055L0.722656 5.91016V5.9082C0.722972 5.90721 0.723192 5.90567 0.723633 5.9043C0.72455 5.90145 0.726092 5.89794 0.727539 5.89355C0.730553 5.88443 0.734858 5.87187 0.740234 5.85645C0.750956 5.82569 0.766385 5.78277 0.787109 5.72949C0.828728 5.62253 0.891417 5.47256 0.978516 5.29492C1.15218 4.94075 1.42644 4.46858 1.82715 3.99414C2.63467 3.03809 3.96453 2.07233 5.99902 2.07227ZM5.99902 3.07227C4.32615 3.07233 3.25634 3.85081 2.59082 4.63867C2.25514 5.0361 2.02395 5.43557 1.87695 5.73535C1.81463 5.86245 1.76795 5.97072 1.73535 6.05176C1.76857 6.12752 1.8152 6.22753 1.87695 6.34473C2.02668 6.62885 2.26121 7.00916 2.59961 7.38965C3.27101 8.14452 4.34703 8.90155 6.00781 8.92871C7.6576 8.95556 8.72554 8.20426 9.39551 7.4375C9.73347 7.05068 9.969 6.66066 10.1191 6.36719C10.1834 6.24163 10.2301 6.13432 10.2637 6.05469C10.231 5.97337 10.1851 5.86385 10.1221 5.73535C9.97507 5.43555 9.74296 5.03616 9.40723 4.63867C8.74167 3.85084 7.67187 3.07227 5.99902 3.07227ZM6.69922 6.01562C6.69922 5.65966 6.39858 5.34766 5.99902 5.34766C5.59956 5.34776 5.29883 5.65972 5.29883 6.01562C5.29894 6.37145 5.59964 6.68252 5.99902 6.68262C6.3985 6.68262 6.6991 6.37151 6.69922 6.01562ZM1.19922 6.06055L0.726562 6.22266L0.672852 6.06738L0.72168 5.91113L1.19922 6.06055ZM11.3242 6.06445L11.2734 6.21777L10.7988 6.06055L11.2764 5.91113L11.3242 6.06445ZM7.69922 6.01562C7.69911 6.94934 6.92488 7.68262 5.99902 7.68262C5.07325 7.68251 4.29894 6.94928 4.29883 6.01562C4.29883 5.08188 5.07318 4.34776 5.99902 4.34766C6.92495 4.34766 7.69922 5.08181 7.69922 6.01562Z" fill="currentColor"/></svg>

<svg xmlns="http://www.w3.org/2000/svg" width="12" height="12" fill="currentColor"><path fill="currentColor" d="M5.999 2.072c2.035 0 3.365.966 4.173 1.922A6.4 6.4 0 0 1 11.21 5.73l.06.165q0 .006.003.01l.001.004.001.002-.477.15.474.159v.002l-.005.014-.013.036-.049.125a6.3 6.3 0 0 1-1.058 1.7c-.814.932-2.145 1.866-4.157 1.833-2-.033-3.325-.96-4.138-1.874A6.3 6.3 0 0 1 .795 6.397l-.049-.122-.014-.035-.003-.01-.001-.004-.001-.002.472-.163-.476-.15v-.007l.005-.01a3 3 0 0 1 .06-.165c.04-.106.103-.256.19-.434a6.4 6.4 0 0 1 .85-1.3c.807-.957 2.137-1.923 4.171-1.923m0 1c-1.673 0-2.743.779-3.408 1.567a5.4 5.4 0 0 0-.856 1.413q.05.116.142.293c.15.284.384.664.723 1.045.671.755 1.747 1.512 3.408 1.539 1.65.027 2.718-.725 3.388-1.492a5.3 5.3 0 0 0 .868-1.382 5.4 5.4 0 0 0-.856-1.416c-.666-.788-1.736-1.567-3.409-1.567m.7 2.944c0-.356-.3-.668-.7-.668s-.7.312-.7.668c0 .355.3.667.7.667s.7-.311.7-.667m-5.5.045-.472.162-.054-.156.049-.156zm10.125.003-.05.154-.475-.157.477-.15zM7.7 6.016c0 .933-.774 1.667-1.7 1.667s-1.7-.734-1.7-1.667c0-.934.774-1.668 1.7-1.668s1.7.734 1.7 1.668"/></svg>
